img/bed.svg

<svg width="32" height="32" viewBox="0 0 32 32" fill="none" xmlns="http://www.w3.org/2000/svg">
<path d="M27.8512 24.6666V21.7777M4.1475 24.6666V21.7777M29.3327 21.7777H2.66602V17.4444C2.66602 17.0613 2.8221 16.6939 3.09993 16.423C3.37776 16.1521 3.75458 15.9999 4.1475 15.9999H27.8512C28.2441 15.9999 28.6209 16.1521 28.8988 16.423C29.1766 16.6939 29.3327 17.0613 29.3327 17.4444V21.7777ZM26.3697 8.7777C26.3697 8.39461 26.2136 8.02721 25.9358 7.75632C25.658 7.48543 25.2812 7.33325 24.8882 7.33325H7.11046C6.71755 7.33325 6.34073 7.48543 6.06289 7.75632C5.78506 8.02721 5.62898 8.39461 5.62898 8.7777V15.9999H26.3697V8.7777Z" stroke="#191A23" stroke-width="1.5" stroke-linecap="round" stroke-linejoin="round"/>
</svg>

<svg xmlns="http://www.w3.org/2000/svg" width="32" height="32" fill="none"><path stroke="#191A23" stroke-linecap="round" stroke-linejoin="round" stroke-width="1.5" d="M27.851 24.667v-2.89m-23.703 2.89v-2.89m25.185 0H2.666v-4.333c0-.383.156-.75.434-1.021A1.5 1.5 0 0 1 4.147 16h23.704c.393 0 .77.152 1.048.423.278.27.434.638.434 1.021zm-2.963-13c0-.382-.156-.75-.434-1.02a1.5 1.5 0 0 0-1.048-.424H7.11c-.392 0-.77.152-1.047.423-.278.271-.434.639-.434 1.022V16h20.74z"/></svg>
